packages/kaspersky-hexa-ui-icons/src/iconsSVGs/16/WeChatColor.svg

<svg width="16" height="16" viewBox="0 0 16 16" fill="none" xmlns="http://www.w3.org/2000/svg">
<path d="M15 12.9C15 14.0599 14.0598 15 12.9 15H3.1C1.94015 15 1 14.0599 1 12.9V3.1C1 1.94019 1.94019 1 3.1 1H12.9C14.0598 1 15 1.94019 15 3.1V12.9Z" fill="#2DC100"/>
<path fill-rule="evenodd" clip-rule="evenodd" d="M8.3409 7.24531C9.94331 6.19584 12.293 6.54585 13.4229 8.00215C14.4089 9.27335 14.2936 10.9616 13.0899 12.0295C12.7416 12.3385 12.6164 12.5928 12.8399 13.0002C12.881 13.0754 12.8853 13.1709 12.9093 13.2658C12.5515 13.1065 12.2235 12.8668 11.8741 12.8303C11.5261 12.7939 11.1601 12.9951 10.796 13.0324C9.68674 13.1459 8.69256 12.837 7.87312 12.0793C6.3146 10.6378 6.53774 8.42663 8.3409 7.24531ZM8.83992 8.48066C8.60384 8.47959 8.40603 8.68164 8.41414 8.91621C8.42189 9.1404 8.61084 9.32218 8.83699 9.32246C9.06462 9.32252 9.25219 9.14401 9.26082 8.91914C9.26988 8.68107 9.07829 8.48179 8.83992 8.48066ZM11.462 8.48164C11.2411 8.4802 11.053 8.66075 11.044 8.88398C11.0345 9.12272 11.2208 9.31892 11.4571 9.31953C11.6854 9.32008 11.8656 9.14728 11.8741 8.92012C11.883 8.68076 11.6972 8.48327 11.462 8.48164Z" fill="white"/>
<path fill-rule="evenodd" clip-rule="evenodd" d="M4.74226 2.99433C6.54523 2.4054 8.5717 3.00624 9.66805 4.43769C10.0638 4.95465 10.307 5.53473 10.3712 6.2209C9.24128 6.27993 8.25871 6.62288 7.46101 7.39668C6.65503 8.17853 6.28623 9.13675 6.3868 10.3244C5.9453 10.2697 5.54318 10.2091 5.13875 10.175C4.99904 10.1632 4.83326 10.1805 4.71492 10.2473C4.32215 10.4689 3.9454 10.7193 3.4991 10.9982C3.58096 10.628 3.63386 10.3033 3.72762 9.99141C3.79663 9.7621 3.765 9.63389 3.55379 9.48457C2.19737 8.52692 1.6259 7.09387 2.05379 5.61836C2.44965 4.25346 3.42143 3.42587 4.74226 2.99433ZM7.88387 5.23945C7.60519 5.24458 7.36935 5.48232 7.3741 5.75312C7.37919 6.03396 7.61086 6.25365 7.89754 6.25019C8.18468 6.24652 8.4021 6.02501 8.39949 5.73848C8.39711 5.45705 8.16746 5.23439 7.88387 5.23945ZM4.66902 5.24043C4.38472 5.23218 4.15096 5.44952 4.14265 5.72969C4.13445 6.01349 4.35152 6.2409 4.63777 6.24824C4.92174 6.25543 5.1595 6.03748 5.17 5.76094C5.18022 5.49118 4.94668 5.24855 4.66902 5.24043Z" fill="white"/>
</svg>

<svg xmlns="http://www.w3.org/2000/svg" width="16" height="16" fill="none" viewBox="0 0 16 16"><path fill="#2dc100" d="M15 12.9c0 1.1599-.9402 2.1-2.1 2.1H3.1C1.9402 15 1 14.0599 1 12.9V3.1C1 1.9402 1.9402 1 3.1 1h9.8c1.1598 0 2.1.9402 2.1 2.1z"/><path fill="#fff" fill-rule="evenodd" d="M8.3409 7.2453c1.6024-1.0495 3.9521-.6995 5.082.7569.986 1.2712.8707 2.9594-.333 4.0273-.3483.309-.4735.5633-.25.9707.0411.0752.0454.1707.0694.2656-.3578-.1593-.6858-.399-1.0352-.4355-.348-.0364-.714.1648-1.0781.2021-1.1093.1135-2.1034-.1954-2.9229-.9531-1.5585-1.4415-1.3354-3.6527.4678-4.834m.499 1.2354c-.236-.0011-.4339.201-.4258.4355.0078.2242.1967.406.4229.4063.2276 0 .4152-.1785.4238-.4034.009-.238-.1825-.4373-.4209-.4384m2.6221.001c-.2209-.0015-.409.179-.418.4023-.0095.2387.1768.435.4131.4355.2283.0006.4085-.1722.417-.3994.0089-.2393-.1769-.4368-.4121-.4385" clip-rule="evenodd"/><path fill="#fff" fill-rule="evenodd" d="M4.7423 2.9943c1.803-.5889 3.8294.012 4.9257 1.4434.3958.517.639 1.097.7032 1.7832-1.13.059-2.1125.402-2.9102 1.1758-.806.7818-1.1748 1.74-1.0742 2.9277-.4415-.0547-.8436-.1153-1.248-.1494-.1398-.0118-.3055.0055-.4239.0723-.3928.2216-.7695.472-1.2158.7509.0819-.3702.1348-.6949.2285-1.0068.069-.2293.0374-.3575-.1738-.5068-1.3564-.9577-1.9279-2.3907-1.5-3.8662.3959-1.365 1.3676-2.1925 2.6885-2.624m3.1416 2.2451c-.2787.0052-.5145.243-.5098.5137.005.2809.2368.5006.5234.497.2872-.0036.5046-.225.502-.5116-.0024-.2815-.232-.5041-.5156-.499m-3.2149.001c-.2843-.0082-.518.2091-.5263.4893-.0082.2838.2088.5112.495.5185.284.0072.5218-.2107.5323-.4873.0102-.2697-.2233-.5124-.501-.5205" clip-rule="evenodd"/></svg>
